X:1
T:Title
%%score { ( 1 3 ) | ( 2 4 ) }
L:1/8
M:4/4
K:F
V:1 treble nm="Grand Piano"
V:3 treble 
V:2 bass 
V:4 bass 
V:1
 z4 z[Q:1/4=96] CFG | A6 z2 | c6 z2 | c6 z2 | c6 z2 | A4 z4 | c6 z2 | e4 z4 |[M:7/8] c-c-c- c- c3 | %9
[M:1/4] cd |[M:4/4] c6 z2 | c6 z2 | [Fd]3 [Fd] [Ge]2 [Fd]2 | c6[K:bass][K:treble] z2 | c6 z2 | %15
 d6 z2 | c6 z2 |[M:11/16] F/-F/-F/-F/-F/-F/-F/-F-<F |] %18
V:2
 z8 | z [F,C][F,C][F,B,] .[F,A,]2 z2 | z [F,C][F,C][F,B,] [F,A,]2 z2 | %3
 z2 [C,B,][C,A,] [C,G,]2 [C,B,]2 | [F,A,F][F,A,][F,A,][F,A,] .[F,A,]2 z2 | %5
 z [F,C][F,C][F,B,] .[F,A,]2 z2 | z [F,C][F,C][F,B,] [F,A,]2 z2 | %7
 z2[K:treble] [G,C][G,C] [G,C]2 [G,=B,F]2 |[M:7/8][K:bass] G,G,B, A, G,3 |[M:1/4] z2 | %10
[M:4/4] z2 [C,B,][C,A,] [C,G,]2 z2 | z2 [F,C][F,B,] [F,A,]2 z2 | %12
 [B,,B,]3 [B,,B,] [B,,B,]2 [B,,B,]2 | [A,F]6 z2 | %14
 z [F,A,][F,A,][G,B,] [A,C][F,A,F][K:treble][G,B,F][A,CF] | %15
 [B,DF][B,D][B,D][B,D] [B,D]2 [=B,F_A][B,FA] | [CFA]2 [CF][K:bass][A,C] [G,B,]2 [C,B,C]2 | %17
[M:11/16] [A,C]A,_A,A,=A,3/2 |] %18
V:3
 x8 | z FED Cced | z AAG F2 AF | z2 GF E2 [Ed]2 | z FED CCFG | z FED Cced | z AAG F2 cd | %7
 z2 GG G2 d2 |[M:7/8] EEG F E3 |[M:1/4] x2 |[M:4/4] z2 GF E2 cd | z2 AG F2 z2 | x8 | %13
 z[K:bass] F,C,A,, F,,[K:treble]AAB | z FFE F_eee | z FFF F2 dd | z2 AF E2 E2 | %17
[M:11/16] z C^CC=C3/2 |] %18
V:4
 x8 | x8 | x8 | x8 | x8 | x8 | x8 | x2[K:treble] x6 |[M:7/8][K:bass] C,-C,-C,- C,- C,3 | %9
[M:1/4] x2 |[M:4/4] x8 | x8 | x8 | .F,2 z2 z4 | x6[K:treble] x2 | x8 | x3[K:bass] x5 | %17
[M:11/16] F,/-F,/-F,/-F,/-F,/-F,/-F,/-F,-<F, |] %18

